src/assets/img/react.svg

<svg width="24" height="24" viewBox="0 0 24 24" fill="none" xmlns="http://www.w3.org/2000/svg">
<path d="M12 9.86102C11.7191 9.86102 11.441 9.91634 11.1814 10.0238C10.9219 10.1313 10.6861 10.2889 10.4875 10.4875C10.2889 10.6861 10.1313 10.9219 10.0238 11.1815C9.91633 11.441 9.861 11.7191 9.861 12C9.861 12.2809 9.91633 12.5591 10.0238 12.8186C10.1313 13.0781 10.2889 13.3139 10.4875 13.5125C10.6861 13.7111 10.9219 13.8687 11.1814 13.9762C11.441 14.0837 11.7191 14.139 12 14.139C12.2809 14.139 12.559 14.0837 12.8186 13.9762C13.0781 13.8687 13.3139 13.7111 13.5125 13.5125C13.7111 13.3139 13.8687 13.0781 13.9762 12.8186C14.0837 12.5591 14.139 12.2809 14.139 12C14.139 11.7191 14.0837 11.441 13.9762 11.1815C13.8687 10.9219 13.7111 10.6861 13.5125 10.4875C13.3139 10.2889 13.0781 10.1313 12.8186 10.0238C12.559 9.91634 12.2809 9.86102 12 9.86102ZM6.008 16.255L5.536 16.135C2.018 15.246 0 13.737 0 11.996C0 10.255 2.018 8.74602 5.536 7.85702L6.008 7.73802L6.141 8.20602C6.49738 9.43373 6.95322 10.6304 7.504 11.784L7.605 11.997L7.504 12.21C6.95231 13.3633 6.49643 14.56 6.141 15.788L6.008 16.255ZM5.317 8.95002C2.643 9.70102 1.002 10.85 1.002 11.996C1.002 13.141 2.643 14.29 5.317 15.042C5.64402 14.0019 6.03887 12.9844 6.499 11.996C6.03834 11.0078 5.64348 9.99027 5.317 8.95002V8.95002ZM17.992 16.255L17.859 15.786C17.503 14.5584 17.0468 13.362 16.495 12.209L16.394 11.996L16.495 11.783C17.0466 10.6296 17.5028 9.43291 17.859 8.20502L17.992 7.73702L18.465 7.85602C21.982 8.74502 24 10.254 24 11.996C24 13.738 21.982 15.246 18.465 16.135L17.992 16.255V16.255ZM17.501 11.996C17.981 13.035 18.378 14.056 18.683 15.042C21.358 14.29 22.998 13.141 22.998 11.996C22.998 10.85 21.357 9.70202 18.683 8.95002C18.3564 9.99024 17.9616 11.0078 17.501 11.996V11.996ZM5.31 8.94502L5.177 8.47802C4.188 4.99202 4.488 2.49402 6 1.62202C7.483 0.766016 9.864 1.77702 12.359 4.33802L12.699 4.68702L12.359 5.03602C11.4725 5.95762 10.6624 6.9499 9.937 8.00302L9.802 8.19602L9.567 8.21602C8.29091 8.31661 7.02509 8.52062 5.782 8.82602L5.31 8.94502V8.94502ZM7.206 2.31502C6.938 2.31502 6.701 2.37302 6.501 2.48802C5.507 3.06102 5.331 5.05302 6.016 7.74102C7.08164 7.50395 8.16159 7.33659 9.249 7.24002C9.87642 6.3479 10.5619 5.49806 11.301 4.69602C9.741 3.17702 8.264 2.31502 7.206 2.31502V2.31502ZM16.795 22.677C16.794 22.677 16.794 22.677 16.795 22.677C15.37 22.677 13.54 21.604 11.641 19.654L11.301 19.305L11.641 18.956C12.5273 18.0341 13.337 17.0415 14.062 15.988L14.197 15.795L14.431 15.775C15.7078 15.675 16.9743 15.4713 18.218 15.166L18.69 15.047L18.824 15.515C19.811 18.999 19.512 21.498 18 22.369C17.6327 22.5767 17.2169 22.683 16.795 22.677V22.677ZM12.699 19.296C14.259 20.815 15.736 21.677 16.794 21.677H16.795C17.062 21.677 17.3 21.619 17.499 21.504C18.493 20.931 18.67 18.938 17.984 16.25C16.9181 16.4874 15.8378 16.6548 14.75 16.751C14.1233 17.6437 13.4382 18.4939 12.699 19.296V19.296ZM18.69 8.94502L18.218 8.82602C16.9744 8.51974 15.7079 8.31572 14.431 8.21602L14.197 8.19602L14.062 8.00302C13.3374 6.94957 12.5277 5.95725 11.641 5.03602L11.301 4.68702L11.641 4.33802C14.135 1.77802 16.515 0.767016 18 1.62202C19.512 2.49402 19.812 4.99202 18.824 8.47702L18.69 8.94502ZM14.75 7.24002C15.892 7.34402 16.977 7.51302 17.984 7.74102C18.67 5.05302 18.493 3.06102 17.499 2.48802C16.511 1.91702 14.654 2.79202 12.699 4.69602C13.4377 5.4981 14.1229 6.34793 14.75 7.24002V7.24002ZM7.206 22.677C6.7838 22.6831 6.36756 22.5768 6 22.369C4.488 21.498 4.188 19 5.177 15.515L5.309 15.047L5.781 15.166C6.936 15.457 8.21 15.662 9.566 15.775L9.801 15.795L9.935 15.988C10.6606 17.0414 11.4706 18.034 12.357 18.956L12.697 19.305L12.357 19.654C10.459 21.604 8.629 22.677 7.206 22.677V22.677ZM6.016 16.25C5.33 18.938 5.507 20.931 6.501 21.504C7.488 22.067 9.344 21.199 11.301 19.296C10.5622 18.4934 9.87674 17.6432 9.249 16.751C8.16154 16.6549 7.08156 16.4875 6.016 16.25V16.25ZM12 16.878C11.177 16.878 10.331 16.842 9.484 16.772L9.249 16.752L9.114 16.559C8.63491 15.8706 8.18452 15.1627 7.764 14.437C7.34472 13.7108 6.95572 12.9675 6.598 12.209L6.498 11.996L6.598 11.783C6.95567 11.0245 7.34467 10.2812 7.764 9.55502C8.178 8.83902 8.633 8.12502 9.114 7.43302L9.249 7.24002L9.484 7.22002C11.1587 7.07802 12.8423 7.07802 14.517 7.22002L14.751 7.24002L14.885 7.43302C15.8442 8.81008 16.6861 10.2652 17.402 11.783L17.503 11.996L17.402 12.209C16.6878 13.7277 15.8458 15.183 14.885 16.559L14.751 16.752L14.517 16.772C13.67 16.842 12.823 16.878 12 16.878V16.878ZM9.803 15.794C11.283 15.905 12.717 15.905 14.198 15.794C15.0248 14.5853 15.7589 13.3156 16.394 11.996C15.7601 10.6756 15.0256 9.40586 14.197 8.19802C12.7344 8.08701 11.2656 8.08701 9.803 8.19802C8.97408 9.40563 8.23957 10.6754 7.606 11.996C8.24176 13.3155 8.97618 14.5851 9.803 15.794V15.794Z" fill="#E6E6E6"/>
</svg>

<svg width="24px" height="24px" viewBox="0 0 24 24" role="img" xmlns="http://www.w3.org/2000/svg"><title>React icon</title><path d="M12 9.861A2.139 2.139 0 1 0 12 14.139 2.139 2.139 0 1 0 12 9.861zM6.008 16.255l-.472-.12C2.018 15.246 0 13.737 0 11.996s2.018-3.25 5.536-4.139l.472-.119.133.468a23.53 23.53 0 0 0 1.363 3.578l.101.213-.101.213a23.307 23.307 0 0 0-1.363 3.578l-.133.467zM5.317 8.95c-2.674.751-4.315 1.9-4.315 3.046 0 1.145 1.641 2.294 4.315 3.046a24.95 24.95 0 0 1 1.182-3.046A24.752 24.752 0 0 1 5.317 8.95zM17.992 16.255l-.133-.469a23.357 23.357 0 0 0-1.364-3.577l-.101-.213.101-.213a23.42 23.42 0 0 0 1.364-3.578l.133-.468.473.119c3.517.889 5.535 2.398 5.535 4.14s-2.018 3.25-5.535 4.139l-.473.12zm-.491-4.259c.48 1.039.877 2.06 1.182 3.046 2.675-.752 4.315-1.901 4.315-3.046 0-1.146-1.641-2.294-4.315-3.046a24.788 24.788 0 0 1-1.182 3.046zM5.31 8.945l-.133-.467C4.188 4.992 4.488 2.494 6 1.622c1.483-.856 3.864.155 6.359 2.716l.34.349-.34.349a23.552 23.552 0 0 0-2.422 2.967l-.135.193-.235.02a23.657 23.657 0 0 0-3.785.61l-.472.119zm1.896-6.63c-.268 0-.505.058-.705.173-.994.573-1.17 2.565-.485 5.253a25.122 25.122 0 0 1 3.233-.501 24.847 24.847 0 0 1 2.052-2.544c-1.56-1.519-3.037-2.381-4.095-2.381zM16.795 22.677c-.001 0-.001 0 0 0-1.425 0-3.255-1.073-5.154-3.023l-.34-.349.34-.349a23.53 23.53 0 0 0 2.421-2.968l.135-.193.234-.02a23.63 23.63 0 0 0 3.787-.609l.472-.119.134.468c.987 3.484.688 5.983-.824 6.854a2.38 2.38 0 0 1-1.205.308zm-4.096-3.381c1.56 1.519 3.037 2.381 4.095 2.381h.001c.267 0 .505-.058.704-.173.994-.573 1.171-2.566.485-5.254a25.02 25.02 0 0 1-3.234.501 24.674 24.674 0 0 1-2.051 2.545zM18.69 8.945l-.472-.119a23.479 23.479 0 0 0-3.787-.61l-.234-.02-.135-.193a23.414 23.414 0 0 0-2.421-2.967l-.34-.349.34-.349C14.135 1.778 16.515.767 18 1.622c1.512.872 1.812 3.37.824 6.855l-.134.468zM14.75 7.24c1.142.104 2.227.273 3.234.501.686-2.688.509-4.68-.485-5.253-.988-.571-2.845.304-4.8 2.208A24.849 24.849 0 0 1 14.75 7.24zM7.206 22.677A2.38 2.38 0 0 1 6 22.369c-1.512-.871-1.812-3.369-.823-6.854l.132-.468.472.119c1.155.291 2.429.496 3.785.609l.235.02.134.193a23.596 23.596 0 0 0 2.422 2.968l.34.349-.34.349c-1.898 1.95-3.728 3.023-5.151 3.023zm-1.19-6.427c-.686 2.688-.509 4.681.485 5.254.987.563 2.843-.305 4.8-2.208a24.998 24.998 0 0 1-2.052-2.545 24.976 24.976 0 0 1-3.233-.501zM12 16.878c-.823 0-1.669-.036-2.516-.106l-.235-.02-.135-.193a30.388 30.388 0 0 1-1.35-2.122 30.354 30.354 0 0 1-1.166-2.228l-.1-.213.1-.213a30.3 30.3 0 0 1 1.166-2.228c.414-.716.869-1.43 1.35-2.122l.135-.193.235-.02a29.785 29.785 0 0 1 5.033 0l.234.02.134.193a30.006 30.006 0 0 1 2.517 4.35l.101.213-.101.213a29.6 29.6 0 0 1-2.517 4.35l-.134.193-.234.02c-.847.07-1.694.106-2.517.106zm-2.197-1.084c1.48.111 2.914.111 4.395 0a29.006 29.006 0 0 0 2.196-3.798 28.585 28.585 0 0 0-2.197-3.798 29.031 29.031 0 0 0-4.394 0 28.477 28.477 0 0 0-2.197 3.798 29.114 29.114 0 0 0 2.197 3.798z"/></svg>
